assets/icons/stanovaya.svg

<svg width="100" height="100" viewBox="0 0 100 100" fill="none" xmlns="http://www.w3.org/2000/svg">
<circle cx="50" cy="50" r="49" stroke="url(#paint0_linear_271_266)" stroke-width="2"/>
<path d="M55.2717 55.7408C55.0893 55.5369 54.9492 55.2988 54.8595 55.0403C54.7697 54.7818 54.7321 54.5081 54.7488 54.235L54.751 54.1931H44.9433L44.9455 54.235C44.9623 54.5081 44.9247 54.7818 44.8349 55.0403C44.7451 55.2988 44.605 55.5369 44.4226 55.7408C44.2801 55.901 44.1136 56.0382 43.9292 56.1477L43.2898 61.2245C43.2815 61.2894 43.2761 61.3548 43.2731 61.4201L42.8132 71.4092C42.7501 72.7757 43.8071 73.9346 45.1736 73.9975C45.2124 73.9993 45.2511 74.0001 45.2895 74.0001C46.6051 74.0001 47.7008 72.9646 47.7619 71.6369L48.2173 61.7458L49.0267 55.3168H50.6668L51.4765 61.7456L51.9316 71.6367C51.9927 72.9646 53.0883 74.0001 54.4043 74.0001C54.4425 74.0001 54.4813 73.9993 54.5199 73.9975C55.8865 73.9344 56.9434 72.7757 56.8805 71.4092L56.4209 61.4201C56.4178 61.3546 56.4122 61.2893 56.4041 61.2243L55.7647 56.1475C55.5805 56.038 55.4142 55.9008 55.2717 55.7408Z" fill="url(#paint1_linear_271_266)"/>
<path d="M49.8476 35.0994C52.3603 35.0994 54.3973 33.0624 54.3973 30.5497C54.3973 28.037 52.3603 26 49.8476 26C47.3348 26 45.2979 28.037 45.2979 30.5497C45.2979 33.0624 47.3348 35.0994 49.8476 35.0994Z" fill="url(#paint2_linear_271_266)"/>
<path d="M69.9406 61.86C69.9406 62.3048 70.3046 62.6688 70.7494 62.6688H70.8942C71.2701 62.6688 71.586 62.4075 71.6753 62.0581C71.7645 62.4075 72.0804 62.6688 72.4565 62.6688H72.6012C72.9648 62.6688 73.271 62.4239 73.3719 62.0921C73.4728 62.4241 73.7787 62.6688 74.1425 62.6688H74.2873C74.7321 62.6688 75.0961 62.3048 75.0961 61.86V57.5007H76.4754V55.3169H82.6949V54.193H76.4754V52.0091H75.0961V47.6499C75.0961 47.2051 74.7321 46.8411 74.2873 46.8411H74.1425C73.7787 46.8411 73.4728 47.086 73.3719 47.4178C73.271 47.086 72.9648 46.8411 72.6012 46.8411H72.4565C72.0804 46.8411 71.7645 47.1023 71.6753 47.4517C71.586 47.1023 71.2701 46.8411 70.8942 46.8411H70.7494C70.3046 46.8411 69.9406 47.2051 69.9406 47.6499V54.193H58.9224C58.9171 54.2886 58.9129 54.3817 58.9072 54.4781C58.8897 54.7711 58.8101 55.057 58.6737 55.3169H69.9406V61.86ZM40.7875 54.4781C40.7818 54.3817 40.7776 54.2886 40.7723 54.193H29.7562V47.6499C29.7562 47.2051 29.3922 46.8411 28.9473 46.8411H28.8025C28.4266 46.8411 28.1108 47.1023 28.0214 47.4517C27.9322 47.1023 27.6166 46.8411 27.2405 46.8411H27.0957C26.7309 46.8411 26.424 47.0876 26.3241 47.421C26.2244 47.0876 25.9174 46.8411 25.5526 46.8411H25.4079C24.9632 46.8411 24.599 47.2051 24.599 47.6499V52.0091H23.22V54.193H17V55.3169H23.2198V57.5007H24.5988V61.86C24.5988 62.3048 24.963 62.6688 25.4077 62.6688H25.5524C25.9174 62.6688 26.2242 62.4225 26.3239 62.0891C26.4238 62.4225 26.7309 62.6688 27.0955 62.6688H27.2403C27.6164 62.6688 27.932 62.4075 28.0212 62.0581C28.1106 62.4075 28.4264 62.6688 28.8023 62.6688H28.9471C29.392 62.6688 29.756 62.3048 29.756 61.86V55.3169H41.0208C40.8845 55.057 40.805 54.7711 40.7875 54.4781ZM41.2518 54.451C41.2642 54.6631 41.3182 54.8706 41.4108 55.0618C41.5035 55.253 41.6329 55.4241 41.7916 55.5653C41.9503 55.7065 42.1353 55.815 42.336 55.8847C42.5367 55.9544 42.7491 55.9838 42.9612 55.9714C43.3896 55.9464 43.7904 55.7522 44.0756 55.4316C44.3607 55.111 44.5069 54.6903 44.4818 54.2619C44.0724 47.2625 44.567 43.5352 45.1336 41.5705L45.598 41.634C45.0664 43.4343 44.5565 46.96 44.918 53.7279H54.7771C55.1387 46.96 54.6287 43.4343 54.0971 41.634L54.5616 41.5705C55.1282 43.535 55.6228 47.2625 55.2133 54.2619C55.2004 54.4821 55.2326 54.7026 55.3081 54.9099C55.3835 55.1171 55.5005 55.3068 55.6519 55.4671C55.8033 55.6275 55.986 55.7552 56.1885 55.8424C56.3911 55.9296 56.6094 55.9745 56.8299 55.9743C57.2424 55.9738 57.639 55.8159 57.9389 55.5328C58.2388 55.2497 58.4192 54.8627 58.4434 54.451C58.7837 48.6345 58.5586 44.1822 57.7761 41.1309C57.3215 39.3585 56.6793 38.0575 55.849 37.24C55.1906 36.5917 54.5452 36.3652 54.1009 36.2916C53.9872 36.2654 53.8709 36.252 53.7541 36.2516H45.9418C45.8225 36.2516 45.7066 36.2661 45.595 36.2916C45.1507 36.3654 44.5051 36.5917 43.8467 37.24C43.0164 38.0575 42.3742 39.3585 41.9196 41.1309C41.1365 44.1822 40.9114 48.6345 41.2518 54.451Z" fill="url(#paint3_linear_271_266)"/>
<defs>
<linearGradient id="paint0_linear_271_266" x1="0" y1="50.0041" x2="100" y2="50.0041" gradientUnits="userSpaceOnUse">
<stop stop-color="#E4F0FF"/>
<stop offset="0.35" stop-color="#E2EEFC"/>
<stop offset="0.5" stop-color="#DBE7F5"/>
<stop offset="0.61" stop-color="#D1DBE9"/>
<stop offset="0.7" stop-color="#C1CBD7"/>
<stop offset="0.78" stop-color="#ADB5C0"/>
<stop offset="0.85" stop-color="#949AA4"/>
<stop offset="0.92" stop-color="#767A82"/>
<stop offset="0.98" stop-color="#55575C"/>
<stop offset="1" stop-color="#48494D"/>
</linearGradient>
<linearGradient id="paint1_linear_271_266" x1="42.8105" y1="64.0974" x2="56.8832" y2="64.0974" gradientUnits="userSpaceOnUse">
<stop stop-color="#E4F0FF"/>
<stop offset="0.35" stop-color="#E2EEFC"/>
<stop offset="0.5" stop-color="#DBE7F5"/>
<stop offset="0.61" stop-color="#D1DBE9"/>
<stop offset="0.7" stop-color="#C1CBD7"/>
<stop offset="0.78" stop-color="#ADB5C0"/>
<stop offset="0.85" stop-color="#949AA4"/>
<stop offset="0.92" stop-color="#767A82"/>
<stop offset="0.98" stop-color="#55575C"/>
<stop offset="1" stop-color="#48494D"/>
</linearGradient>
<linearGradient id="paint2_linear_271_266" x1="45.2979" y1="30.5501" x2="54.3973" y2="30.5501" gradientUnits="userSpaceOnUse">
<stop stop-color="#E4F0FF"/>
<stop offset="0.35" stop-color="#E2EEFC"/>
<stop offset="0.5" stop-color="#DBE7F5"/>
<stop offset="0.61" stop-color="#D1DBE9"/>
<stop offset="0.7" stop-color="#C1CBD7"/>
<stop offset="0.78" stop-color="#ADB5C0"/>
<stop offset="0.85" stop-color="#949AA4"/>
<stop offset="0.92" stop-color="#767A82"/>
<stop offset="0.98" stop-color="#55575C"/>
<stop offset="1" stop-color="#48494D"/>
</linearGradient>
<linearGradient id="paint3_linear_271_266" x1="17" y1="49.4613" x2="82.6949" y2="49.4613" gradientUnits="userSpaceOnUse">
<stop stop-color="#E4F0FF"/>
<stop offset="0.35" stop-color="#E2EEFC"/>
<stop offset="0.5" stop-color="#DBE7F5"/>
<stop offset="0.61" stop-color="#D1DBE9"/>
<stop offset="0.7" stop-color="#C1CBD7"/>
<stop offset="0.78" stop-color="#ADB5C0"/>
<stop offset="0.85" stop-color="#949AA4"/>
<stop offset="0.92" stop-color="#767A82"/>
<stop offset="0.98" stop-color="#55575C"/>
<stop offset="1" stop-color="#48494D"/>
</linearGradient>
</defs>
</svg>

<svg xmlns="http://www.w3.org/2000/svg" width="100" height="100" fill="none"><circle cx="50" cy="50" r="49" stroke="url(#a)" stroke-width="2"/><path fill="url(#b)" d="M55.272 55.74a2.067 2.067 0 0 1-.523-1.505l.002-.042h-9.808l.003.042a2.067 2.067 0 0 1-.523 1.506c-.143.16-.31.297-.494.407l-.64 5.076c-.008.065-.013.13-.016.196l-.46 9.99a2.477 2.477 0 1 0 4.949.227l.455-9.891.81-6.43h1.64l.81 6.43.455 9.89a2.477 2.477 0 0 0 4.948-.227l-.46-9.989a2.563 2.563 0 0 0-.016-.196l-.64-5.076a2.091 2.091 0 0 1-.492-.407Z"/><path fill="url(#c)" d="M49.848 35.1a4.55 4.55 0 1 0 0-9.1 4.55 4.55 0 0 0 0 9.1Z"/><path fill="url(#d)" d="M69.94 61.86c0 .445.365.809.81.809h.144a.81.81 0 0 0 .781-.61c.09.349.405.61.782.61h.144a.81.81 0 0 0 .77-.577c.102.332.408.577.772.577h.144a.811.811 0 0 0 .81-.809V57.5h1.378v-2.183h6.22v-1.124h-6.22v-2.184h-1.379v-4.36a.811.811 0 0 0-.809-.808h-.145a.809.809 0 0 0-.77.577.81.81 0 0 0-.77-.577h-.145a.81.81 0 0 0-.782.61.81.81 0 0 0-.78-.61h-.146a.811.811 0 0 0-.808.809v6.543H58.922l-.015.285a2.07 2.07 0 0 1-.233.839H69.94v6.543Zm-29.152-7.382-.016-.285H29.756V47.65a.811.811 0 0 0-.809-.809h-.145a.81.81 0 0 0-.78.61.81.81 0 0 0-.781-.61h-.145a.81.81 0 0 0-.772.58.809.809 0 0 0-.771-.58h-.145a.811.811 0 0 0-.809.809v4.36H23.22v2.183H17v1.124h6.22V57.5h1.379v4.359c0 .445.364.809.809.809h.144a.809.809 0 0 0 .772-.58c.1.334.407.58.771.58h.145a.81.81 0 0 0 .781-.61c.09.349.405.61.781.61h.145a.811.811 0 0 0 .809-.809v-6.543h11.265a2.072 2.072 0 0 1-.233-.839Zm.464-.027a1.618 1.618 0 1 0 3.23-.19c-.41-6.998.085-10.726.652-12.69l.464.063c-.532 1.8-1.041 5.326-.68 12.094h9.86c.36-6.768-.15-10.294-.68-12.094l.464-.063c.566 1.964 1.06 5.692.651 12.69a1.617 1.617 0 1 0 3.23.19c.34-5.816.116-10.269-.667-13.32-.455-1.773-1.097-3.074-1.927-3.891-.658-.648-1.304-.875-1.748-.948a1.568 1.568 0 0 0-.347-.04h-7.812c-.12 0-.235.014-.347.04-.444.073-1.09.3-1.748.948-.83.817-1.473 2.118-1.927 3.89-.784 3.052-1.009 7.505-.668 13.321Z"/><defs><linearGradient id="a" x1="0" x2="100" y1="50.004" y2="50.004" gradientUnits="userSpaceOnUse"><stop stop-color="#E4F0FF"/><stop offset=".35" stop-color="#E2EEFC"/><stop offset=".5" stop-color="#DBE7F5"/><stop offset=".61" stop-color="#D1DBE9"/><stop offset=".7" stop-color="#C1CBD7"/><stop offset=".78" stop-color="#ADB5C0"/><stop offset=".85" stop-color="#949AA4"/><stop offset=".92" stop-color="#767A82"/><stop offset=".98" stop-color="#55575C"/><stop offset="1" stop-color="#48494D"/></linearGradient><linearGradient id="b" x1="42.81" x2="56.883" y1="64.097" y2="64.097" gradientUnits="userSpaceOnUse"><stop stop-color="#E4F0FF"/><stop offset=".35" stop-color="#E2EEFC"/><stop offset=".5" stop-color="#DBE7F5"/><stop offset=".61" stop-color="#D1DBE9"/><stop offset=".7" stop-color="#C1CBD7"/><stop offset=".78" stop-color="#ADB5C0"/><stop offset=".85" stop-color="#949AA4"/><stop offset=".92" stop-color="#767A82"/><stop offset=".98" stop-color="#55575C"/><stop offset="1" stop-color="#48494D"/></linearGradient><linearGradient id="c" x1="45.298" x2="54.397" y1="30.55" y2="30.55" gradientUnits="userSpaceOnUse"><stop stop-color="#E4F0FF"/><stop offset=".35" stop-color="#E2EEFC"/><stop offset=".5" stop-color="#DBE7F5"/><stop offset=".61" stop-color="#D1DBE9"/><stop offset=".7" stop-color="#C1CBD7"/><stop offset=".78" stop-color="#ADB5C0"/><stop offset=".85" stop-color="#949AA4"/><stop offset=".92" stop-color="#767A82"/><stop offset=".98" stop-color="#55575C"/><stop offset="1" stop-color="#48494D"/></linearGradient><linearGradient id="d" x1="17" x2="82.695" y1="49.461" y2="49.461" gradientUnits="userSpaceOnUse"><stop stop-color="#E4F0FF"/><stop offset=".35" stop-color="#E2EEFC"/><stop offset=".5" stop-color="#DBE7F5"/><stop offset=".61" stop-color="#D1DBE9"/><stop offset=".7" stop-color="#C1CBD7"/><stop offset=".78" stop-color="#ADB5C0"/><stop offset=".85" stop-color="#949AA4"/><stop offset=".92" stop-color="#767A82"/><stop offset=".98" stop-color="#55575C"/><stop offset="1" stop-color="#48494D"/></linearGradient></defs></svg>
